X:1
T:Ad Dominum cum tribularer - Palestrina
T:#
%%score [ 1 2 3 4 ]
L:1/8
Q:1/4=100
M:4/4
K:F
V:1 treble nm="Soprano" snm="S"
V:2 treble nm="Alto" snm="A"
V:3 treble-8 nm="Tenor" snm="T"
V:4 bass nm="Bass" snm="B"
V:1
"^Ad Dominum cum tribularer" G8 | d3 d d2 ^c2 | d2 d2 f4 | e2 (d3 c/B/ A2) | %4
w: Ad|Do- mi- num cum|tri- bu- la-|rer cla\- * * *|
"^G. P. da Palestrina\n(1526-94)" (B3 A G4) | F2 (f3 d e2) |[M:4/4] (fedc d2 c2- | cB G2) A4- | %8
w: ma\- * *|vi, cla\- * *|ma\- * * * * *|* * * vi,|
 A4 B4 | G2 A2 B4 | B2 G2 A4 | A4 z4 | z4 d4- | d2 f4 e2 | d2 c2 B4 | G4 d4 | c2 B2 (A2 G2- | %17
w: * cum|tri- bu- la-|rer cla- ma-|vi,|et|* ex- au-|di- vit me,|et ex-|au- di- vit *|
 G^F F2) G4 | z8 | =B6 B2 | =B2 c4 c2 | c2 c3 c c2 | d3 d G2 (_e2- | ed dc/B/ c4) | d2 d4 d2 | d8 | %26
w: * * * me.||Do- mi-|ne, Do- mi-|ne, li- be- ra|a- ni- mam me\-||am, Do- mi-|ne,|
 z4 z2 d2- | dd A2 c4 | A4 z4 | z4 z2 d2 | g3 g g2 f2 | (_e3 d c4) | =B2 B2 c2 d2 | G2 (_B4 AG | %34
w: a\-|* ni- mam me-|am|a|la- bi- is i-|ni\- * *|quis, et a lin-|gua do\- * *|
 F2) (G3 ^F F2) | G2 c2 B2 A2 | F2 G2 A4- | A4 A4 | z2 A2 A2 A2 | =B4 c4- | c4 z4 | z8 | z2 c4 B2 | %43
w: * lo\- * *|sa, et a lin-|gua do- lo\-|* sa.|Quid de- tur|ti- bi,|||aut quid|
 G2 A2 B2 c2- | c2 (B3 A A2- | A2 G2 A2 B2) | A4 z2 A2- | A2 B4 G2 | A2 (B3 A G2- | G2 ^FE F4) | %50
w: ap- po- na- tur|* ti\- * *||bi ad|* lin- guam|do- lo\- * *||
 G4 z2 d2 | (B2 c2) d4- | d4 z2[Q:1/4=99] A2 |[Q:1/4=96] B4[Q:1/4=93] G2[Q:1/4=91] A2 | %54
w: sam, do-|lo\- * sam,|* ad|lin- guam do-|
[Q:1/4=87] B8 |[Q:1/4=84] !fermata!A8 |] %56
w: lo-|sam?|
V:2
 z8 | z8 | D8 | G3 G G2 ^F2 | G2 G2 B4 | A8 |[M:4/4] A2 (B4 A2- | AG G4 ^FE | ^F4) G2 G2 | %9
w: ||Ad|Do- mi- num cum|tri- bu- la-|rer|cla- ma\- *||* vi, cum|
 B2 A2 G4 | F2 D2 E4 | (F3 G A4) | z2 A2 B4- | B2 A2 F2 (G2- | GD F2) G2 G2 | B6 A2 | %16
w: tri- bu- la-|rer cla- ma-|vi, * *|et ex\-|* au- di- vit|* * * me, et|ex- au-|
 G2 F2 (_E2 D2) | z2 C2 _E2 D2 | C2 B,2 A,4 | D6 D2 | D2 G4 G2 | G4 A3 A | A2 B3 B (c2- | %23
w: di- vit me, *|et ex- au-|di- vit me.|Do- mi-|ne, Do- mi-|ne, li- be-|ra a- ni- mam|
 cB B4) A2 | B2 B4 B2 | B2 F3 F G2 | A3 A D2 (B2- | BA AG/F/ G4) | F2 F2 G3 G | G2 F2 (_ED D2- | %30
w: * * * me-|am, Do- mi-|ne, li- be- ra|a- ni- mam me\-||am a la- bi-|is i- ni\- * *|
 D2 C2) D2 D2 | (G3 F _E4) | D4 z2 D2 | E2 F2 G2 A2 | B4 A2 A2 | G2 F2 D2 F2- | F2 (ED ^C3 D | %37
w: * * quis, i-|ni\- * *|quis, et|a lin- gua do-|lo- sa, et|a lin- gua do\-|* lo\- * * *|
 ED/E/ F2 E4) | ^F2 F2 F2 F2 | G4 A2 A2- | A2 G2 E2 F2 | G2 C2 (D2 G2- | G2 ^F2) G4 | z8 | %44
w: |sa. Quid de- tur|ti- bi, aut|* quid ap- po-|na- tur ti\- *|* * bi,||
 z2 G4 F2 | D3 E F2 G2 | E4 E4 | F4 G4 | _E2 F2 G4 | A2 A4 B2- | B2 G2 A2 (B2- | B2 AG ^F2) (G2- | %52
w: aut quid|ap- po- na- tur|ti- bi|ad lin-|guam do- lo-|sam, ad lin\-|* guam do- lo\-|* * * * sam,|
 G2 ^FE F2) F2 | G4 B2 A2 | G8 | !fermata!^F8 |] %56
w: * * * * ad|lin- guam do-|lo-|sam?|
V:3
 z8 | z8 | z8 | z8 | G8 | d3 d d2 ^c2 |[M:4/4][K:treble-8] d2 d2 f4 | _e2 e2 d4 | d8- | d4 z2 G2 | %10
w: ||||Ad|Do- mi- num cum|tri- bu- la-|rer cla- ma-|vi,|* ad|
 d3 d d2 ^c2 | d2 d2 f2 e2 | ^f4 g4 | d4 z4 | z6 d2- | d2 g4 f2 | _e2 (d2 c2 B2) | (A4 G4) | z8 | %19
w: Do- mi- num cum|tri- bu- la- rer|cla- ma-|vi,|et|* ex- au-|di- vit * *|me. *||
 z2 g4 g2 | g2 e4 e2 | e4 f3 f | f2 g3 g c2 | g4 f4 | z2 f4 f2 | f4 d3 d | e2 f3 f (g2- | %27
w: Do- mi-|ne, Do- mi-|ne, li- be-|ra a- ni- mam|me- am,|Do- mi-|ne, li- be-|ra a- ni- mam|
 gf f4) e2 | f2 c2 d3 d | d2 c2 (B3 A | G4) A2 =B2 | c4 g4- | g2 G2 A2 =B2 | c2 d2 _e4 | d8 | %35
w: * * * me-|am a la- bi-|is i- ni\- *|* qui~s, i-|ni- quis,|* et a lin-|gua do- lo-|sa,|
 z2 A2 B2 c2 | d2 e2 (f2 ed | ^c2 d4 c2) | d2 d2 d2 d2 | d4 f2 f2- | f2 e2 c2 d2 | e2 (f3 d _e2) | %42
w: et a lin-|gua do- lo\- * *||sa. Quid de- tur|tí- bi, aut|* quid ap- po-|na- tur * *|
 c4 d2 g2- | g2 f2 d2 e2 | f2 g2 (e2 f2- | f2 ed cA d2- | d2 ^c=B) c4 | d4 _e4 | c2 d2 _e4 | d8 | %50
w: ti- bi, aut|* quid ap- po-|na- tur ti\- *||* * * bi|ad lin-|guam do- lo-|sam,|
 B4 c2 F2 | G4 (A2 B2) | A8 | z2 G2 d4 | d2 d2 d4 | !fermata!d8 |] %56
w: ad lín- guam|do- lo\- *|sam,|ad lin-|guam do- lo-|sam?|
V:4
 z8 | z8 | z8 | z8 | z8 | z8 |[M:4/4] z8 | z4 D,4- | D,4 G,3 G, | G,2 ^F,2 G,2 G,2 | B,4 A,4 | %11
w: |||||||Ad|* Do- mi-|num cum tri- bu-|la- rer|
 D,2 (D3 ^C/=B,/ C2) | D4 z2 G,2- | G,2 D4 C2 | B,2 A,2 G,4- | G,4 z4 | z6 G,2 | C6 B,2 | %18
w: cla- ma\- * * *|vi, et|* ex- au-|di- vit me,||et|ex- au-|
 A,2 (G,4 ^F,2) | G,2 G,4 G,2 | G,2 C,4 C,2 | C,4 z4 | z8 | z8 | z2 B,,4 B,,2 | B,,4 B,3 B, | %26
w: di- vit *|me. Do- mi-|ne, Do- mi-|ne,|||Do- mi-|ne, li- be-|
 C2 D3 D G,2 | D4 C4 | F,4 B,3 B, | B,2 A,2 (G,3 F, | _E,4) D,4 | C,4 C,4 | G,4 z4 | z8 | z4 D,4 | %35
w: ra a- ni- mam|me- am|a la- bi-|is i- ni\- *|* quis,|i- ni-|quis,||et|
 E,2 F,2 G,2 A,2 | B,4 A,4- | A,8 | z2 D,2 D,2 D,2 | G,4 F,4 | z2 C4 B,2 | G,2 A,2 B,2 C2 | %42
w: a lin- gua do-|lo- sa.||Quid de- tur|tí- bi,|aut quid|ap- po- na- tur|
 A,4 G,4 | z2 D4 C2 | A,2 B,2 C2 D2 | (B,4 A,2 G,2) | A,8 | z8 | z8 | D,8 | _E,4 C,2 D,2 | %51
w: ti- bi,|aut quid|ap- po- na- tur|ti\- * *|bi|||ad|lin- guam do-|
 _E,4 D,4 | D,8 | G,4 G,2 ^F,2 | G,8 | !fermata!D,8 |] %56
w: lo- sam,|ad|lin- guam do-|lo-|sam?|

